packages/vapor/resources/icons/svg/source-servicenow.svg

<svg viewBox="0 0 32 32" xmlns="http://www.w3.org/2000/svg"><path d="m30 2v28h-28v-28zm0-2h-28c-1.1 0-2 .9-2 2v28c0 1.1.9 2 2 2h28c1.1 0 2-.9 2-2v-28c0-1.1-.9-2-2-2z" fill="#bcc3ca"/><path d="m16.1 6.1c-6.2.1-11.1 5-11.1 11.2 0 3 1.2 5.9 3.4 8 .8.7 2 .8 2.8.1 2.8-2.1 6.6-2.1 9.4 0 .9.7 2.1.6 2.9-.1 4.5-4.3 4.7-11.3.4-15.7-2-2.2-4.9-3.4-7.8-3.5m-.1 16.6c-3 .1-5.4-2.2-5.5-5.2 0-.1 0-.2 0-.3-.1-3 2.3-5.6 5.3-5.7s5.6 2.3 5.7 5.3v.4c.1 3-2.3 5.4-5.2 5.5-.1 0-.2 0-.3 0" fill="#81b5a1"/></svg>

<svg xmlns="http://www.w3.org/2000/svg" viewBox="0 0 32 32">
	<path fill="#BCC3CA" d="M30,2v28H2V2H30 M30,0H2C0.9,0,0,0.9,0,2v28c0,1.1,0.9,2,2,2h28c1.1,0,2-0.9,2-2V2C32,0.9,31.1,0,30,0z"/>
	<path fill="#81B5A1" d="M16.1,6.1C9.9,6.2,5,11.1,5,17.3c0,3,1.2,5.9,3.4,8c0.8,0.7,2,0.8,2.8,0.1c2.8-2.1,6.6-2.1,9.4,0 c0.9,0.7,2.1,0.6,2.9-0.1C28,21,28.2,14,23.9,9.6C21.9,7.4,19,6.2,16.1,6.1 M16,22.7c-3,0.1-5.4-2.2-5.5-5.2c0-0.1,0-0.2,0-0.3 c-0.1-3,2.3-5.6,5.3-5.7c3-0.1,5.6,2.3,5.7,5.3c0,0.1,0,0.2,0,0.4c0.1,3-2.3,5.4-5.2,5.5C16.2,22.7,16.1,22.7,16,22.7"/>
</svg>
